src/images/svg/bank.svg

<svg xmlns="http://www.w3.org/2000/svg" width="24" height="24" viewBox="0 0 24 24"><path fill="none" d="M0 0h24v24H0V0z"></path><path fill="#C60C30" d="M6.251 10.851H3.95V18.9h2.301v-8.049zm6.899 0h-2.299V18.9h2.299v-8.049zm9.775 10.35H1.075V23.5h21.85v-2.299zm-2.875-10.35h-2.299V18.9h2.299v-8.049zm-8.049-7.753l5.992 3.152H6.009l5.992-3.152m0-2.598L1.075 6.25v2.3h21.85v-2.3L12.001.5z"></path></svg>

<?xml version="1.0" encoding="utf-8"?>
<!-- Generator: Adobe Illustrator 16.0.3, SVG Export Plug-In . SVG Version: 6.00 Build 0)  -->
<!DOCTYPE svg PUBLIC "-//W3C//DTD SVG 1.1//EN" "http://www.w3.org/Graphics/SVG/1.1/DTD/svg11.dtd">
<svg version="1.1" id="Layer_1" xmlns="http://www.w3.org/2000/svg" xmlns:xlink="http://www.w3.org/1999/xlink" x="0px" y="0px"
	 width="24px" height="24px" viewBox="0 0 24 24" enable-background="new 0 0 24 24" xml:space="preserve">
<path fill="none" d="M0,0h24v24H0V0z"></path>
<path fill="#C60C30" d="M6.251,10.851H3.95v8.049h2.301V10.851z M13.15,10.851h-2.299v8.049h2.299V10.851z M22.925,21.201H1.075
	V23.5h21.85V21.201z M20.05,10.851h-2.299v8.049h2.299V10.851z M12.001,3.098l5.992,3.152H6.009L12.001,3.098 M12.001,0.5
	L1.075,6.25v2.3h21.85v-2.3L12.001,0.5z"></path>
</svg>
